X:98203
T:Joe MacDiarmid's Jig
P:Joe MacDiarmid's Jig
C:Rob Loch
R:Jig (4x32)
B:RSCDS D82-3
Z:Anselm Lingnau <anselm@strathspey.org>
M:6/8
L:1/8
K:D
|:d|"D"A2d dcd|"G"B2d "D"A2d|f2d "E7"dcd|"A"e3 "A7"e2f|
    "D"A2d dcd|"G"B2d "D"A2d|"D"f2e "G"edB|"D"Add [d2A2F2]:|
|:e|"D"fdd A2f|"G"Bdd "D"A3|fdd AB"E7"d|"A"e3 "A7"e3|
    "D"fdd A2f|"G"Bdd "D"A2d|f2e "G"edB|"D"Add [d2A2F2]:|
